X: 9
T:Paddy The Weaver (#119)
M:6/8
L:1/8
S:Wilson's Companion to the Ballroom, 1816
K:D
d|c2 A ABA|c2 A A2 d|c2 A AGA|F2 D D2 d|
c2 A ABA|c2 A A2 e|f2 d gec|d3 D2:|
|:e|fgf gab|agf efg|f2 d ded|c2 A A2e|
fgf gab|agf efg|f2 d gec|d3 d2:||

